X:1
T:Title
%%score 1 2
L:1/8
Q:1/4=90
M:4/4
K:Bb
V:1 treble nm="Grand Piano, Soprano"
V:2 bass nm="Choir Pad, The Golden Time"
V:1
 [Fd]>[Ec] [DB]>[FA] [FA]2 [EG]2 | [Ec]>[GB] [FA]>[EG] [EG]2 [DF]2 | F>[FG] [FA]>[FB] [Fc]2 [Fd]2 | %3
w: By~James~Ramsey~Murray * * * * *|||
 [Fe]>[Fd] [Fc]>[FB] [Fc]4 | [Fd]>[Ec] [DB]>[FA] [FA]2 [EG]2 | [Ec]>[GB] [FA]>[EG] [EG]2 [DF]2 | %6
w: |||
 F>[FG] [FA]>[FB] [Fc]>[Ee] [Fd]>[Fc] | [DB]2 [EA]2 [DB]4 |[Q:1/4=105] [EG]2 [Ge]2 [Ge]2 [EG]2 | %9
w: |||
 [DF]2 [Fd]2 [Fd]4 | [Fc][FB][Fc][Fd] [Fe]2 [EA]2 | [DB]2 [Fd]2 [DF]4 | [EG]2 [Ge]2 [Ge]2 [EG]2 | %13
w: ||||
 [DF]2 [Fd]2 [Fd]4 | [Fc][FB][Fc][Fd] [Fe]2 [EA]2 | [DB]6 z2 |] %16
w: |||
V:2
 [B,,B,]>[B,,B,] [B,,B,]>[B,,B,] [E,B,]2 [E,B,]2 | [C,C]>[C,C] [F,C]>[F,A,] [B,,B,]2 [B,,B,]2 | %2
 [F,A,]>[F,B,] [F,C]>[F,D] [F,E]2 [F,D]2 | [F,C]>[F,B,] [F,A,]>[F,G,] [F,A,]4 | %4
 [B,,B,]>[B,,B,] [B,,B,]>[B,,B,] [E,B,]2 [E,B,]2 | [C,C]>[C,C] [F,C]>[F,A,] [B,,B,]2 [B,,B,]2 | %6
 [F,A,]>[G,B,] [F,C]>[D,B,] [C,G,]>[C,C] [D,B,]>[E,G,] | F,2 F,2 [B,,F,]4 | %8
 [E,B,]2 [E,B,]2 [E,B,]2 [E,B,]2 | [B,,B,]2 [B,,B,]2 [B,,B,]4 | %10
 [F,A,][F,G,][F,A,][F,B,] [F,C]2 [F,C]2 | [B,,B,]2 [B,,B,]2 [B,,B,]4 | %12
 [E,B,]2 [E,B,]2 [E,B,]2 [E,B,]2 | [B,,B,]2 [B,,B,]2 [B,,B,]4 | %14
 [F,A,][F,G,][F,A,][F,B,] [F,C]2 [F,C]2 | [B,,B,]6 z2 |] %16

